build/system/SignInSolid.svg

<svg xmlns="http://www.w3.org/2000/svg" fill="none" viewBox="0 0 24 24" focusable="false"><path d="M0 0H24V24H0z"/><path fill="#74767B" fill-rule="evenodd" d="M15.9375 19.7L9 19.7C8.06112 19.7 7.3 18.9389 7.3 18L7.3 17.7125C7.3 17.3535 7.00899 17.0625 6.65 17.0625C6.29102 17.0625 6 17.3535 6 17.7125L6 18C6 19.6569 7.34315 21 9 21L15.9375 21C17.5944 21 18.9375 19.6569 18.9375 18L18.9375 6C18.9375 4.34315 17.5944 3 15.9375 3L9 3C7.34315 3 6 4.34315 6 6L6 6.35C6 6.70898 6.29102 7 6.65 7C7.00899 7 7.3 6.70898 7.3 6.35L7.3 6C7.3 5.06112 8.06112 4.3 9 4.3L15.9375 4.3C16.1612 4.3 16.3748 4.34321 16.5705 4.42174L15.0239 5.33303C14.1087 5.87232 13.5469 6.85541 13.5469 7.9177L13.5469 16.041C13.5469 17.0921 14.097 18.0665 14.997 18.6096L16.5895 19.5705C16.3887 19.6539 16.1685 19.7 15.9375 19.7ZM7.90942 8.8676C7.644 8.62589 7.23289 8.64511 6.99118 8.91053C6.74947 9.17595 6.76869 9.58706 7.03411 9.82877L8.6629 11.3121L3.70078 11.3121C3.3418 11.3121 3.05078 11.6031 3.05078 11.9621C3.05078 12.321 3.3418 12.6121 3.70078 12.6121L8.60344 12.6121L7.05818 14.096C6.79926 14.3447 6.79093 14.7561 7.03958 15.0151C7.28823 15.274 7.69971 15.2823 7.95863 15.0337L10.6666 12.4331C10.7541 12.3491 10.813 12.2465 10.843 12.1374C10.9521 11.889 10.8971 11.5884 10.6853 11.3955L7.90942 8.8676Z"/><path fill="#74767B" fill-rule="evenodd" d="M14.6934 18.4C13.9749 17.8356 13.5469 16.9681 13.5469 16.041L13.5469 7.9177C13.5469 7.01238 13.9549 6.16459 14.642 5.6C14.7611 5.5021 14.8887 5.41272 15.0239 5.33303L16.5705 4.42174C16.3764 4.34382 16.1645 4.30068 15.9427 4.30001L15.9375 4.3L14.2223 4.3L9 4.3C8.53056 4.3 8.10556 4.49028 7.79792 4.79792C7.49028 5.10556 7.3 5.53056 7.3 6L7.3 6.35C7.3 6.70898 7.00899 7 6.65 7C6.29102 7 6 6.70898 6 6.35L6 6L6.00004 5.98525C6.00145 5.69238 6.04482 5.40943 6.12446 5.14211C6.18135 4.95112 6.25676 4.7681 6.34859 4.59515C6.48777 4.33301 6.6647 4.09397 6.87211 3.88527C6.8743 3.88307 6.87649 3.88087 6.87868 3.87868C6.88087 3.87649 6.88306 3.87431 6.88526 3.87212C7.09398 3.66468 7.33305 3.48774 7.59523 3.34855C7.76783 3.25691 7.95044 3.18164 8.141 3.12479C8.41313 3.0436 8.70148 3 9 3L15.9375 3C16.2077 3 16.4695 3.03571 16.7185 3.10268C16.8482 3.13754 16.9743 3.18087 17.0964 3.23205C17.7763 3.51705 18.329 4.04524 18.6457 4.70782C18.8328 5.09914 18.9375 5.53734 18.9375 6L18.9375 18C18.9375 18.4629 18.8327 18.9013 18.6455 19.2927C18.3338 19.9443 17.794 20.4658 17.1294 20.7539C17.0139 20.8039 16.8946 20.847 16.7721 20.8824C16.5072 20.959 16.2271 21 15.9375 21L9 21C8.70067 21 8.41157 20.9562 8.13879 20.8746C7.94903 20.8178 7.76716 20.7427 7.59522 20.6515C7.33437 20.513 7.09639 20.3371 6.88842 20.131C6.88513 20.1278 6.88189 20.1245 6.87868 20.1213C6.87548 20.1181 6.87225 20.1149 6.86899 20.1116C6.66306 19.9038 6.48731 19.666 6.34887 19.4054C6.25744 19.2333 6.18229 19.0512 6.12545 18.8612C6.04608 18.5959 6.00244 18.3152 6.0001 18.0246C6.00003 18.0164 6 18.0082 6 18L6 17.7125C6 17.3535 6.29102 17.0625 6.65 17.0625C7.00899 17.0625 7.3 17.3535 7.3 17.7125L7.3 18C7.3 18.4694 7.49024 18.8944 7.79783 19.202L7.79792 19.2021C8.10556 19.5097 8.53056 19.7 9 19.7L15.9375 19.7C16.1685 19.7 16.3887 19.6539 16.5895 19.5705L14.997 18.6096C14.8908 18.5455 14.7895 18.4755 14.6934 18.4ZM17.5231 18.6155L15.6686 17.4965C15.5411 17.4196 15.4272 17.3295 15.3268 17.2262C15.2265 17.1229 15.1397 17.0064 15.0665 16.8767C14.9933 16.747 14.9384 16.6126 14.9018 16.4733C14.8652 16.334 14.8469 16.1899 14.8469 16.041L14.8469 7.9177C14.8469 7.76721 14.8655 7.62168 14.9029 7.4811C14.9402 7.34053 14.9962 7.2049 15.0709 7.07424C15.1455 6.94357 15.234 6.82648 15.3361 6.72294C15.4383 6.61942 15.5542 6.52945 15.6839 6.45306L17.5182 5.37219C17.5478 5.44645 17.5719 5.52204 17.5904 5.59896C17.6218 5.72885 17.6375 5.86253 17.6375 6L17.6375 18C17.6375 18.1375 17.6218 18.2711 17.5904 18.401C17.5729 18.4737 17.5504 18.5452 17.5231 18.6155ZM7.24973 13.9121L7.05818 14.096C6.79926 14.3447 6.79093 14.7561 7.03958 15.0151C7.28823 15.274 7.69971 15.2823 7.95863 15.0337L10.4803 12.6121L10.6666 12.4331C10.7541 12.3491 10.813 12.2465 10.843 12.1374C10.9521 11.889 10.8971 11.5884 10.6853 11.3955L10.5937 11.3121L7.90993 8.86807L7.90942 8.8676C7.644 8.62589 7.23289 8.64511 6.99118 8.91053C6.74947 9.17595 6.76869 9.58706 7.03411 9.82877L7.23538 10.0121L8.6629 11.3121L3.70078 11.3121C3.3418 11.3121 3.05078 11.6031 3.05078 11.9621C3.05078 12.321 3.3418 12.6121 3.70078 12.6121L6.7266 12.6121L8.60344 12.6121L7.24973 13.9121Z"/></svg>

<svg xmlns="http://www.w3.org/2000/svg" fill="none" viewBox="0 0 24 24" focusable="false"><g fill="#74767B" fill-rule="evenodd"><path d="M9 19.7h6.93c.23 0 .45-.05.65-.13l-1.59-.97c-.9-.54-1.45-1.51-1.45-2.56V7.91c0-1.06.56-2.04 1.48-2.58l1.55-.91a1.7 1.7 0 0 0-.64-.13H9c-.94 0-1.71.77-1.71 1.71v.34c0 .36-.29.66-.65.66C6.29 7 6 6.7 6 6.34V6c0-1.66 1.34-3 3-3h6.93c1.66 0 3 1.34 3 3v12c0 1.65-1.34 3-3 3H9c-1.66 0-3-1.35-3-3v-.29c0-.36.29-.65.64-.65.36 0 .65.29.65.65V18c0 .93.77 1.7 1.71 1.7M7.9 8.86a.64.64 0 0 0-.91.05c-.25.26-.23.67.04.91l1.63 1.49H3.7c-.36 0-.65.29-.65.65s.29.65.65.65h4.9l-1.55 1.48c-.26.25-.26.66-.02.92.25.26.66.27.92.02l2.71-2.6q.135-.135.18-.3c.11-.25.05-.55-.16-.74z"/><path d="M14.69 18.4a3.02 3.02 0 0 1-1.15-2.36V7.91c0-.9.41-1.75 1.1-2.32.12-.09.24-.18.38-.26l1.55-.91c-.2-.08-.41-.12-.63-.13H9c-.47 0-.9.2-1.21.5-.3.31-.5.74-.5 1.21v.34c0 .36-.29.66-.65.66C6.29 7 6 6.7 6 6.34v-.36c0-.29.04-.58.12-.84.06-.19.13-.38.22-.55.14-.26.32-.5.53-.71v-.01h.01c.21-.21.45-.39.71-.53A3.03 3.03 0 0 1 9 3h6.93a2.9 2.9 0 0 1 1.16.23c.68.28 1.23.81 1.55 1.47.19.39.29.83.29 1.3v12c0 .46-.1.9-.29 1.29-.31.65-.85 1.17-1.52 1.46-.11.05-.23.09-.35.13-.27.07-.55.12-.84.12H9c-.3 0-.59-.05-.87-.13-.19-.06-.37-.13-.54-.22-.26-.14-.5-.32-.71-.52q0-.01-.01-.01 0-.01-.01-.01c-.2-.21-.38-.45-.52-.71A2.941 2.941 0 0 1 6 18.02v-.31c0-.36.29-.65.64-.65.36 0 .65.29.65.65V18c0 .46.2.89.5 1.2.31.3.74.5 1.21.5h6.93c.23 0 .45-.05.65-.13l-1.59-.97c-.1-.06-.21-.13-.3-.2m2.83.21-1.86-1.12q-.19-.11-.34-.27-.15-.15-.26-.35-.11-.19-.16-.4-.06-.21-.06-.43V7.91q0-.22.06-.43.05-.21.17-.41.11-.2.26-.35.15-.16.35-.27l1.83-1.08q.05.11.08.22.04.2.04.41v12q0 .2-.04.4-.03.11-.07.21m-10.28-4.7-.19.18c-.26.25-.26.66-.02.92.25.26.66.27.92.02l2.53-2.42.18-.18q.135-.135.18-.3c.11-.25.05-.55-.16-.74l-.09-.08-2.68-2.45H7.9a.64.64 0 0 0-.91.05c-.25.26-.23.67.04.91l.2.19 1.43 1.3H3.7c-.36 0-.65.29-.65.65s.29.65.65.65h4.9z"/></g></svg>
